icons-rebrand/svg/paired-handset-light.svg

<svg width="32" height="32" viewBox="0 0 32 32" fill="none" xmlns="http://www.w3.org/2000/svg">
<g clip-path="url(#clip0)">
<path d="M25.5001 2.50012C24.7958 2.5041 24.1054 2.69612 23.5001 3.05633C22.8949 2.69612 22.2044 2.5041 21.5001 2.50012C20.4393 2.50012 19.4218 2.92155 18.6717 3.67169C17.9216 4.42184 17.5001 5.43925 17.5001 6.50012C17.5001 7.56099 17.9216 8.5784 18.6717 9.32855C19.4218 10.0787 20.4393 10.5001 21.5001 10.5001C22.2044 10.4961 22.8949 10.3041 23.5001 9.94391C24.1054 10.3041 24.7958 10.4961 25.5001 10.5001C26.561 10.5001 27.5784 10.0787 28.3286 9.32855C29.0787 8.5784 29.5001 7.56099 29.5001 6.50012C29.5001 5.43925 29.0787 4.42184 28.3286 3.67169C27.5784 2.92155 26.561 2.50012 25.5001 2.50012ZM24.5001 6.50012C24.499 6.91964 24.4093 7.3342 24.237 7.7167C24.0647 8.09919 23.8136 8.44103 23.5001 8.71985C23.1858 8.44176 22.9341 8.10008 22.7617 7.71741C22.5893 7.33475 22.5001 6.91983 22.5001 6.50012C22.5001 6.08041 22.5893 5.66549 22.7617 5.28283C22.9341 4.90016 23.1858 4.55848 23.5001 4.28039C23.8136 4.55921 24.0647 4.90105 24.237 5.28354C24.4093 5.66604 24.499 6.0806 24.5001 6.50012ZM18.5001 6.50012C18.4989 6.00808 18.619 5.52332 18.8498 5.08878C19.0806 4.65424 19.415 4.28331 19.8234 4.00886C20.2318 3.73441 20.7016 3.5649 21.1911 3.51534C21.6807 3.46578 22.1749 3.5377 22.63 3.72473C21.9056 4.46695 21.5001 5.46297 21.5001 6.50009C21.5001 7.53721 21.9056 8.53323 22.63 9.27545C22.1749 9.46252 21.6807 9.53446 21.1911 9.48492C20.7016 9.43538 20.2318 9.26588 19.8234 8.99143C19.415 8.71698 19.0806 8.34605 18.8498 7.91149C18.619 7.47694 18.4988 6.99217 18.5001 6.50012ZM25.5001 9.50012C25.1125 9.49948 24.7287 9.42316 24.3703 9.27545C25.0947 8.53323 25.5001 7.53722 25.5001 6.50011C25.5001 5.463 25.0946 4.467 24.3702 3.72479C24.7802 3.55775 25.2221 3.48356 25.6642 3.50755C26.1062 3.53154 26.5375 3.65311 26.9269 3.86354C27.3164 4.07397 27.6545 4.36804 27.9169 4.72462C28.1792 5.0812 28.3594 5.49146 28.4444 5.92592C28.5294 6.36039 28.5171 6.80828 28.4085 7.23745C28.2998 7.66661 28.0975 8.0664 27.816 8.40809C27.5346 8.74979 27.1809 9.02492 26.7805 9.21373C26.3801 9.40254 25.9428 9.50035 25.5001 9.50012Z" fill="black"/>
<path d="M23.8683 19.8751C23.3024 19.3117 22.5363 18.9957 21.7378 18.9962C20.9393 18.9968 20.1736 19.3139 19.6085 19.878C19.6085 19.878 18.1359 21.3761 17.8468 21.6847C16.8542 21.7056 15.8677 21.523 14.9484 21.1481C14.029 20.7732 13.1961 20.214 12.5011 19.505C11.1024 18.1027 10.3019 16.2128 10.2677 14.2325C10.63 13.8702 12.1281 12.3975 12.131 12.3947C12.4106 12.1152 12.6323 11.7834 12.7836 11.4182C12.9349 11.053 13.0128 10.6615 13.0128 10.2662C13.0128 9.87093 12.9349 9.4795 12.7836 9.1143C12.6323 8.7491 12.4106 8.41729 12.131 8.13782L9.37806 5.38489C8.80246 4.83488 8.03698 4.52795 7.24085 4.52795C6.44472 4.52795 5.67924 4.83488 5.10365 5.38489L3.63199 6.85657C1.74918 8.73938 1.38785 15.4132 8.99039 23.0158C13.9035 27.9288 18.4289 29.5168 21.5246 29.5168C22.8341 29.6107 24.1302 29.2025 25.1496 28.3752L26.6212 26.9035C26.902 26.6229 27.1248 26.2897 27.2768 25.923C27.4288 25.5563 27.507 25.1632 27.507 24.7663C27.507 24.3693 27.4288 23.9762 27.2768 23.6095C27.1248 23.2428 26.902 22.9096 26.6212 22.6291L23.8683 19.8751ZM25.9142 26.1964L24.4425 27.6681C23.0626 29.048 16.8566 29.4679 9.69739 22.3087C2.53821 15.1495 2.95814 8.94446 4.33899 7.5636L5.81068 6.09192C5.99843 5.904 6.22137 5.75492 6.46677 5.65321C6.71217 5.55149 6.97521 5.49914 7.24085 5.49914C7.50649 5.49914 7.76953 5.55149 8.01493 5.65321C8.26033 5.75492 8.48327 5.904 8.67102 6.09192L11.424 8.84485C11.8005 9.22128 12.0123 9.73174 12.0129 10.2642C12.0134 10.7966 11.8027 11.3075 11.4269 11.6847C11.4269 11.6847 9.92498 13.1613 9.55969 13.5255C8.86537 14.2228 9.49232 17.9103 11.7941 20.212C12.8937 21.2801 14.247 22.0507 15.7267 22.4513C15.9484 22.5118 17.9005 23.0255 18.4806 22.4454C18.8439 22.0822 20.3185 20.5821 20.3185 20.5821C20.6959 20.206 21.207 19.9948 21.7399 19.9948C22.2727 19.9948 22.7839 20.206 23.1613 20.5821L25.9142 23.3361C26.1021 23.5238 26.2512 23.7468 26.3529 23.9922C26.4546 24.2376 26.507 24.5006 26.507 24.7662C26.507 25.0319 26.4546 25.2949 26.3529 25.5403C26.2512 25.7857 26.1021 26.0087 25.9142 26.1964Z" fill="black"/>
</g>
<defs>
<clipPath id="clip0">
<rect width="32" height="32" fill="white"/>
</clipPath>
</defs>
</svg>

<svg id="Layer_1" data-name="Layer 1" xmlns="http://www.w3.org/2000/svg" viewBox="0 0 32 32"><defs><style>.cls-1{fill:#0f0f0f;}</style></defs><path class="cls-1" d="M28.329,3.672A4,4,0,0,0,25.5,2.5a3.957,3.957,0,0,0-2,.556,3.957,3.957,0,0,0-2-.556,4,4,0,1,0,0,8,3.957,3.957,0,0,0,2-.556,3.957,3.957,0,0,0,2,.556,4,4,0,0,0,2.829-6.828ZM21.191,9.485a3,3,0,1,1,1.439-5.76,3.972,3.972,0,0,0,0,5.55A2.987,2.987,0,0,1,21.191,9.485ZM23.5,8.72a2.966,2.966,0,0,1,0-4.44,2.968,2.968,0,0,1,0,4.44Zm4.316-.312a2.987,2.987,0,0,1-3.446.867,3.972,3.972,0,0,0,0-5.55,3,3,0,0,1,3.446,4.683Z"/><path class="cls-1" d="M27.277,23.609a3.03,3.03,0,0,0-.656-.98l-2.753-2.754a3.015,3.015,0,0,0-4.259,0s-1.473,1.5-1.762,1.807a7.273,7.273,0,0,1-5.346-2.18,7.65,7.65,0,0,1-2.233-5.273c.362-.362,1.86-1.834,1.863-1.837a3.008,3.008,0,0,0,0-4.257L9.378,5.385a3.093,3.093,0,0,0-4.274,0L3.632,6.857C1.749,8.739,1.388,15.413,8.99,23.016c4.914,4.913,9.439,6.5,12.535,6.5a5.164,5.164,0,0,0,3.625-1.142L26.621,26.9a3.023,3.023,0,0,0,.656-3.295Zm-.924,1.931a2.011,2.011,0,0,1-.439.656l-1.471,1.472c-1.38,1.38-7.586,1.8-14.746-5.359S2.958,8.944,4.339,7.564L5.811,6.092a2.011,2.011,0,0,1,.656-.439,2.02,2.02,0,0,1,2.2.439l2.753,2.753a2.01,2.01,0,0,1,0,2.84s-1.5,1.476-1.867,1.841c-.7.7-.068,4.384,2.234,6.686a9.028,9.028,0,0,0,3.933,2.239c.221.061,2.174.575,2.754-.006.363-.363,1.837-1.863,1.837-1.863a2.015,2.015,0,0,1,2.843,0l2.753,2.754a2.021,2.021,0,0,1,.439,2.2Z"/></svg>
